src/assets/icons/pul-icon-dissertation.svg

<!-- Generated by IcoMoon.io -->
<svg version="1.1" xmlns="http://www.w3.org/2000/svg" width="16" height="16" viewBox="0 0 16 16">
<title>dissertation</title>
<path d="M13.667 0h-11.333c-0.551 0-1 0.449-1 1v14c0 0.551 0.449 1 1 1h11.333c0.184 0 0.333-0.149 0.333-0.333v-15.333c0-0.184-0.149-0.333-0.333-0.333zM2 15v-14c0-0.184 0.15-0.333 0.333-0.333h1v14.667h-1c-0.183 0-0.333-0.149-0.333-0.333zM13.333 15.333h-9.333v-14.667h9.333v14.667zM7 6h4c0.184 0 0.333-0.149 0.333-0.333v-2c0-0.184-0.149-0.333-0.333-0.333h-4c-0.184 0-0.333 0.149-0.333 0.333v2c0 0.184 0.149 0.333 0.333 0.333zM7.333 4h3.333v1.333h-3.333v-1.333z"></path>
</svg>

<svg xmlns="http://www.w3.org/2000/svg" viewBox="0 0 16 16">
    <path d="M13.667 0H2.334c-.551 0-1 .449-1 1v14c0 .551.449 1 1 1h11.333a.333.333 0 0 0 .333-.333V.334a.333.333 0 0 0-.333-.333zM2 15V1c0-.184.15-.333.333-.333h1v14.667h-1A.334.334 0 0 1 2 15.001zm11.333.333H4V.666h9.333v14.667zM7 6h4a.333.333 0 0 0 .333-.333v-2A.333.333 0 0 0 11 3.334H7a.333.333 0 0 0-.333.333v2c0 .184.149.333.333.333zm.333-2h3.333v1.333H7.333V4z"/>
</svg>
